iconography/32x32/C++_SDK.svg

<svg width="32" height="32" viewBox="0 0 32 32" fill="none" xmlns="http://www.w3.org/2000/svg">
<path d="M27.0762 10.5551C27.0758 10.1787 26.9692 9.83026 26.7662 9.5119C26.5803 9.18017 26.3254 8.91278 25.9974 8.72268C23.7355 7.4133 21.4723 6.10685 19.2087 4.79956C18.3087 4.27982 17.4197 3.74003 16.5043 3.24995C15.8462 2.89775 15.1523 2.92491 14.4955 3.2863C13.832 3.65146 13.1819 4.04168 12.526 4.42062C10.0522 5.84991 7.57676 7.27501 5.10549 8.70889C4.37644 9.1317 4.00418 9.78013 4.00334 10.6249C4 14.1904 4.00376 17.7555 4 21.3205C3.99958 21.7412 4.08732 22.1331 4.29079 22.5C4.43618 22.744 4.61709 22.9587 4.84521 23.1275C5.20075 23.3907 5.59975 23.5833 5.97953 23.8073C6.64382 24.1983 7.31355 24.581 7.98328 24.9629C8.12203 25.0421 8.25362 25.1353 8.40221 25.1971C8.42514 25.2066 8.43964 25.2291 8.46065 25.2424V25.2424C8.47494 25.2514 8.49327 25.2543 8.50697 25.2642C8.51676 25.2712 8.52665 25.278 8.53719 25.2835C8.56337 25.2969 8.58772 25.3208 8.61558 25.3303V25.3303C8.6254 25.3337 8.63694 25.3355 8.64599 25.3406C8.70416 25.3733 8.7571 25.4158 8.81828 25.4428C8.85338 25.4583 8.8851 25.4881 8.91831 25.5073V25.5073C9.2045 25.6715 9.49028 25.8361 9.77647 26.0003C10.3547 26.3324 10.9333 26.6633 11.5107 26.9967C12.0096 27.285 12.5064 27.577 13.0052 27.8653C13.4798 28.1398 13.9586 28.4068 14.4303 28.6859C15.052 29.0531 15.7067 29.0957 16.3597 28.8275C16.8527 28.6249 17.2939 28.3103 17.7593 28.0471C18.2791 27.7529 18.7938 27.4504 19.3106 27.1521C19.8788 26.8242 20.4478 26.497 21.016 26.1686C21.56 25.854 22.1032 25.5378 22.6475 25.2236C23.0896 24.9683 23.5333 24.716 23.9749 24.4607C24.5548 24.1252 25.1326 23.7872 25.7129 23.4521C26.0012 23.2858 26.2987 23.1317 26.5209 22.8747C26.5821 22.8039 26.6468 22.735 26.7001 22.658C26.7702 22.5565 26.8209 22.4427 26.8744 22.3316V22.3316C27.0102 22.0521 27.0762 21.755 27.0766 21.4459C27.0787 19.5892 27.0779 17.7321 27.0783 15.8754C27.077 14.1022 27.0787 12.3287 27.0762 10.5551Z" stroke="#002E42" stroke-width="2" stroke-linecap="round"/>
<path d="M26.3445 23.0839C26.1045 22.6453 26.3295 21.9522 26.7945 21.6976C27.1584 21.4985 27.2472 21.0089 26.8782 20.8194C26.4469 20.5979 25.8499 20.5047 25.1442 20.8909C24.3669 21.3164 24.0813 21.9822 24.0029 22.5333C23.944 22.9466 23.7636 23.362 23.4009 23.5687L19.6953 25.6807C19.1886 25.9696 19.0203 26.6198 19.3234 27.1181C19.6176 27.6017 20.2457 27.7594 20.7334 27.4721L24.0751 25.5032C24.5616 25.2166 25.2827 25.3597 25.8314 25.4933C26.3279 25.6142 26.9595 25.5973 27.5448 25.2769C28.2067 24.9147 28.4879 24.3405 28.553 23.8471C28.6104 23.4117 28.1401 23.2412 27.7548 23.452C27.2897 23.7066 26.5846 23.5225 26.3445 23.0839Z" fill="white" stroke="white" stroke-width="3" stroke-linecap="round"/>
<path d="M26.3445 23.0841C26.1045 22.6455 26.3295 21.9524 26.7945 21.6978C27.1584 21.4986 27.2472 21.0091 26.8782 20.8195C26.4469 20.598 25.8499 20.5049 25.1442 20.8911C24.3669 21.3166 24.0813 21.9824 24.0029 22.5335C23.944 22.9468 23.7636 23.3622 23.4009 23.5689L19.6953 25.6809C19.1886 25.9697 19.0203 26.62 19.3234 27.1183C19.6176 27.6019 20.2457 27.7596 20.7334 27.4723L24.0751 25.5034C24.5616 25.2168 25.2827 25.3599 25.8314 25.4935C26.3279 25.6144 26.9595 25.5975 27.5448 25.2771C28.2067 24.9149 28.4879 24.3407 28.553 23.8473C28.6104 23.4118 28.1401 23.2413 27.7548 23.4522C27.2897 23.7068 26.5846 23.5227 26.3445 23.0841Z" fill="white" stroke="#002E42" stroke-linecap="round"/>
<path d="M12.7066 21.5183C12.6823 21.508 12.6564 21.5019 12.6327 21.4904C12.4655 21.4088 12.2965 21.3313 12.1329 21.243C11.1538 20.7141 10.3802 19.9752 9.81998 19.02C9.47293 18.4154 9.24067 17.7698 9.11399 17.0869C9.03712 16.6728 8.99094 16.2541 9.00149 15.8331C9.02228 14.9826 9.20043 14.1664 9.57388 13.3955C9.85034 12.8251 10.2109 12.3148 10.6569 11.8612C11.2788 11.2289 12.0069 10.7583 12.8353 10.4345C13.661 10.1117 14.5181 9.96689 15.4039 10.0063C16.1172 10.038 16.8037 10.1935 17.4609 10.4743C18.3816 10.8676 19.1437 11.463 19.7778 12.2254C19.9645 12.4498 20.137 12.6846 20.2931 12.9308V12.9308C20.312 12.9601 20.3094 12.9982 20.2804 13.0177C20.1151 13.1288 19.937 13.219 19.7646 13.3179C19.1447 13.6743 18.5228 14.0275 17.901 14.3806C17.8876 14.3883 17.8745 14.3965 17.8615 14.405C17.7713 14.4639 17.6609 14.4182 17.5984 14.3304V14.3304C16.9145 13.3704 15.9796 12.9089 14.7943 13.0055C14.0094 13.0694 13.3295 13.3968 12.8201 13.9984C12.0445 14.9148 11.8334 15.9485 12.251 17.0859C12.2934 17.2016 12.3384 17.3184 12.4078 17.4223C12.4398 17.4703 12.4682 17.5246 12.4988 17.5735V17.5735C12.7221 17.9289 13.0049 18.2305 13.3575 18.4604C14.2875 19.0663 15.273 19.1958 16.3055 18.7487C16.8676 18.5053 17.2984 18.106 17.629 17.6025C17.6647 17.5481 17.7143 17.4994 17.7706 17.532V17.532C18.3971 17.8901 19.0233 18.2491 19.6498 18.6072C19.8695 18.7327 20.0902 18.8563 20.3102 18.9815V18.9815C20.3275 18.9914 20.3228 19.0186 20.3125 19.0356C20.0539 19.4631 19.7586 19.8633 19.4073 20.2217C18.6162 21.0294 17.6687 21.5675 16.5625 21.832C15.8506 22.0022 15.1308 22.0416 14.404 21.9569C13.8177 21.8887 13.2523 21.7413 12.7066 21.5183V21.5183Z" stroke="#002E42" stroke-width="2" stroke-linecap="round"/>
<path d="M21 15V17" stroke="#002E42" stroke-linecap="round"/>
<path d="M20 16L22 16" stroke="#002E42" stroke-linecap="round"/>
<path d="M23 15V17" stroke="#002E42" stroke-linecap="round"/>
<path d="M22 16L24 16" stroke="#002E42" stroke-linecap="round"/>
</svg>

<svg width="32" height="32" fill="none" xmlns="http://www.w3.org/2000/svg"><path d="M27.076 10.555c0-.376-.107-.725-.31-1.043-.186-.332-.44-.6-.769-.79-2.262-1.309-4.525-2.615-6.788-3.922-.9-.52-1.79-1.06-2.705-1.55-.658-.352-1.352-.325-2.009.036-.663.365-1.313.756-1.969 1.135-2.474 1.429-4.95 2.854-7.42 4.288-.73.423-1.102 1.071-1.103 1.916C4 14.19 4.003 17.755 4 21.32c0 .421.087.813.29 1.18.146.244.327.459.555.628.356.263.755.455 1.135.68.664.39 1.334.773 2.003 1.155.139.08.27.172.42.234.022.01.037.032.058.045v0c.014.01.032.012.046.022l.03.02c.026.013.05.037.079.046v0l.03.01c.058.033.111.076.172.103.035.015.067.045.1.064v0c.287.165.572.33.858.493.579.332 1.157.663 1.735.997.499.288.995.58 1.494.868.475.275.954.542 1.425.82a2.08 2.08 0 0 0 1.93.143c.493-.203.934-.518 1.4-.78.52-.295 1.034-.598 1.55-.896l1.706-.983c.544-.315 1.087-.631 1.632-.945.442-.256.885-.508 1.327-.763.58-.336 1.158-.674 1.738-1.009.288-.166.586-.32.808-.577.061-.071.126-.14.18-.217.07-.102.12-.215.173-.326v0a2.02 2.02 0 0 0 .203-.886c.002-1.857 0-3.714.001-5.57-.001-1.774 0-3.547-.002-5.32Z" stroke="#002E42" stroke-width="2" stroke-linecap="round"/><path d="M26.345 23.084c-.24-.439-.015-1.132.45-1.386.363-.2.452-.69.083-.879-.431-.221-1.028-.314-1.734.072a2.164 2.164 0 0 0-1.141 1.642c-.059.414-.24.829-.602 1.036l-3.706 2.112a1.035 1.035 0 1 0 1.038 1.791l3.342-1.969c.487-.286 1.208-.143 1.756-.01a2.405 2.405 0 0 0 1.714-.216c.662-.362.943-.937 1.008-1.43.057-.435-.413-.606-.798-.395-.465.255-1.17.07-1.41-.368Z" fill="#fff" stroke="#fff" stroke-width="3" stroke-linecap="round"/><path d="M26.345 23.084c-.24-.439-.015-1.132.45-1.386.363-.2.452-.689.083-.878-.431-.222-1.028-.315-1.734.071a2.164 2.164 0 0 0-1.141 1.643c-.059.413-.24.828-.602 1.035l-3.706 2.112a1.035 1.035 0 1 0 1.038 1.791l3.342-1.969c.487-.286 1.208-.143 1.756-.01a2.4 2.4 0 0 0 1.714-.216c.662-.362.943-.936 1.008-1.43.057-.435-.413-.606-.798-.395-.465.255-1.17.07-1.41-.368Z" fill="#fff" stroke="#002E42" stroke-linecap="round"/><path d="M12.707 21.518c-.025-.01-.05-.016-.074-.028-.167-.081-.336-.159-.5-.247A5.852 5.852 0 0 1 9.82 19.02a6.08 6.08 0 0 1-.706-1.933 6.04 6.04 0 0 1-.113-1.254c.021-.85.2-1.667.573-2.438a5.75 5.75 0 0 1 1.083-1.534 6.159 6.159 0 0 1 2.178-1.427 6.225 6.225 0 0 1 2.569-.428c.713.032 1.4.188 2.057.468a6.12 6.12 0 0 1 2.317 1.751c.187.225.359.46.515.706v0c.019.03.016.067-.013.087-.165.11-.343.201-.515.3a402.882 402.882 0 0 1-1.904 1.087c-.09.059-.2.013-.263-.075v0c-.683-.96-1.618-1.421-2.804-1.325-.785.064-1.465.392-1.974.993-.776.917-.987 1.95-.569 3.088.042.116.087.232.157.336.032.048.06.103.09.151v0c.224.356.507.657.86.887.93.606 1.915.736 2.947.289.563-.244.993-.643 1.324-1.146.036-.055.085-.104.142-.071v0l1.879 1.075.66.375v0c.018.01.013.037.003.054a6.44 6.44 0 0 1-.906 1.186 5.79 5.79 0 0 1-2.845 1.61 6.15 6.15 0 0 1-2.158.125 6.432 6.432 0 0 1-1.697-.439v0Z" stroke="#002E42" stroke-width="2" stroke-linecap="round"/><path d="M21 15v2m-1-1h2m1-1v2m-1-1h2" stroke="#002E42" stroke-linecap="round"/></svg>
